!!!!SEGMENT: pl-wnifc--13846--001-126_anonim--piesni-polskie-i-ruskie-ludu-galicyjskiego-126-chodyla-sy-po-sadoczku.krn
!!!kernsource:
!!!cenid: 18xx:3348
!!!COM: Anonim
!!!COM-rismID: pe30004985
!!!CDT:
!!!CNT:
!!!GTL: Pieśni polskie i ruskie ludu galicyjskiego
!!!OTL: 126. chodyła sy po sadoczku
!!!OMV: 126
!!!PDT: 1833
!!!AGN:
!!!SMS-siglum: PL-Wnifc
!!!SMS-shelfmark: 13846
!!!SMS-shelfwork: 001-126 G
!!!SMS-variant:
!!!SMS-altvar:
!!!NIFC-rismSourceID: 1001036701
!!!NIFC-rismChildID: 1001039632
!!!NIFC-islandoraID: nifc:210326
!!!URL-pdf-islandora: https://repozytorium.nifc.pl/islandora/object/nifc%3A210326/datastream/PDF/view
!!!URL-scan:
!!!IIIF:
!!!ONB-nifc:
!!!OMD: Vivace
!!!AIN: 1 piano 1 vox
!!!key: d
**kern	**kern	**kern	**text
*part2	*part2	*part1	*part1
*staff3	*staff2	*staff1	*staff1
*I"Fortepian	*I"Fortepian	*I"Głos	*
*Ipiano	*Ipiano	*Ivox	*
*ICklav	*ICklav	*ICvox	*
*IGacmp	*IGacmp	*IGsolo	*
*clefF4	*clefG2	*clefG2	*
*k[b-]	*k[b-]	*k[b-]	*
*d:	*d:	*d:	*
*M2/4	*M2/4	*M2/4	*
*>[A,B,B]	*>[A,B,B]	*>[A,B,B]	*
=1	=1	=1	=1
*>A	*>A	*>A	*
!	!	!LO:TX:a:t=E.209.	!
8DD/L	8aa\L	8aa\	Cho-
8F\ 8A\	8aa\J	8aa\	-dy-
8D\	(16gg\LL	(16gg\LL	-ła
.	16ff\)	16ff\JJ)	.
8F\J 8A\	(16ee\	(16ee\LL	sy
.	16dd\JJ)	16dd\JJ)	.
=2	=2	=2	=2
.	.	8qee/	po
8AA\L 8D\ 8F\	(16dd\LL	8ff\	po
.	16ff\J)	.	.
8A\	8ff\J	8ff\	sa-
8AA\ 8E\	8ee\L	8ee\	-do-
8A\J	8cc#X\J	8cc#X\	-czku,
!!LO:LB:g=original
=3	=3	=3	=3
8AA\L 8D\ 8F\	8dd\`L	8dd\	po
8A\	(16dd\L	8ff\	ze-
.	16ff\JJ)	.	.
8AA\ 8C#X\	8ee\L	8ee\	-łe-
8A\J	8gg\J	8gg\	-nym
=4	=4	=4	=4
8AA\L 8D\	8ff\L	8ff\	bar-
8A\	8ff\J	8ff\	-wi-
.	(<16qgg/LL	.	.
.	16qff/JJ)	.	.
8AA\ 8C#X\	8ee\L	8ee\	-no-
8A\J	8cc#X\J	8cc#X\	-czku
!!LO:LB:g=original
=5!|:	=5!|:	=5!|:	=5!|:
*>B	*>B	*>B	*
*^	*	*	*
4F/	8D\L	8dd\L	8dd\	na-
.	8A\J	8dd\J	8dd\	-dy-
4G/	8AA\L 8E\	8cc#X\L	8cc#X\	-ba-
.	8A\J	8a\J	8a\	-ła
*v	*v	*	*	*
=6	=6	=6	=6
8D\L 8F\	8dd|>\L	8dd|>\L	bu-
8A\	(16dd\L	(16dd\L	-ha-
.	16ff\JJ)	16ff\JJ)	.
8AA/ 8C#X/	(8.ee\L	(8.ee\L	-ja
8A\J	.	.	.
.	16gg\Jk)	16gg\Jk)	.
!!LO:LB:g=original
=7	=7	=7	=7
(8D\L 8F\	8ff\L	8ff\	te-
8D\) 8F\ 8A\ 8d\	8ff\J	8ff\	-per-
(8G\ 8B-\	(16ee\LL	(16ee\LL	-że
.	16dd\J)	16dd\JJ)	.
8G\J) 8B-\ 8e\	8dd\J	8dd\	ja
=8	=8	=8	=8
8A\L 8e\ 8g\	(16cc#X\LL	(16cc#X\LL	bid-
.	16a/J)	16a\JJ)	.
8A\J 8e\ 8g\	8cc#|>\J	8cc#\	-na-
4d\ 4f\	4dd\^	4dd\	-ja.
!!LO:PB:g=original
=:|!	=:|!	=:|!	=:|!
*-	*-	*-	*-
!!!system-decoration: s1,{(s2,s3)}
!!!RDF**kern: < = below
!!!RDF**kern: > = above
!!!RDF**kern: | = vertical stroke
!!!ENC: Marta Chmielewska
!!!END: 2021-11-11
!!!YEC: Copyright 2022 Narodowy Instytut Fryderyka Chopina (https://polishscores.org)
!!!YEM: License CC-BY-4.0 (https://creativecommons.org/licenses/by/4.0)
